X:1
T:Hallelujah, I Am Saved
T:Hallelujah, I Am Saved
T:F. J. Howard, 1900
T:J. T. Loyall, 1894
T:Public Domain Courtesy of the Cyber Hymnal™
T:Public Domain Courtesy of the Cyber Hymnal™
C:F. J. Howard, 1900
Z:Public Domain
Z:Courtesy of the Cyber Hymnal™
%%score ( 1 2 ) ( 3 4 )
L:1/8
Q:1/4=76
M:none
K:F
V:1 treble 
V:2 treble 
V:3 bass 
V:4 bass 
V:1
 [FA]>[CG] | [CF]C[CF][EG] | [FA]2 [Fc]>[Fd] | [Fc]2 [FA]>F | (G<!fermata!c)[FA]>[CG] | %5
w: 1.~Hal- le-|lu- jah to the|Lamb! I am|saved! I am|saved! * By His|
w: 2.~Hal- le-|lu- jah! Praise the|Lord! I am|saved! I am|saved! * Faith re-|
w: 3.~Hal- le-|lu- jah! Tell a-|loud! I am|saved! I am|saved! * Love has|
w: 4.~Hal- le-|lu- jah! Shout a-|men! I am|saved! I am|saved! * Tell by|
 [CF]C[CF][EG] | [FA]2 [Fc]>[Fd] | (c<A)[EG]>[CF] | !fermata![CF]2 [DF]>F | [FB]F[FB][Fd] | %10
w: blood re- deemed I|am; I am|saved! * I am|saved! Ere I|en- tered mer- cy’s|
w: ceives His great re-|ward; I am|saved! * I am|saved! I am|ev- ery whit made|
w: ban- ished ev- ery|cloud; I am|saved! * I am|saved! Oh, the|bliss of light di-|
w: life and tongue and|pen; I am|saved! * I am|saved! At the|sanc- ti- fy- ing|
 [Fc]2 [Fd]>[Fc] | [FA][CF][EG][EG] | (A<c)F>F | [DB][DF][FB][Fd] | [Fc]2 [FA]>[FA] | %15
w: door, Sa- tan|had me all en-|slaved; * But by|grace, he can no|more— I am|
w: whole, By my|sin no more de-|praved; * What sweet|peace now fills my|soul! I am|
w: vine! This is|what I long have|craved; * I am|Christ’s, and He is|mine. I am|
w: flood, Je- sus|has my spir- it|laved, * Sprink- ling|with His pre- cious|blood. I am|
 [EG]2 [Fd]>[Ge] | !fermata![Ec]2 ||"^Refrain" [FA]>[CG] | [CF]C[CF][EG] | [FA]2 [Fc]>[Fd] | %20
w: saved! I am|saved!||||
w: saved! I am|saved!|Hal- le-|lu- jah to the|Lamb! I am|
w: saved! I am|saved!||||
w: saved! I am|saved!||||
 [Fc]2 [FA]>F | (G<!fermata!c)[FA]>[CG] | [CF]C[CF][EG] | [FA]2 [Fc]>[Fd] | (c<A)[EG]>[CF] | %25
w: |||||
w: saved! I am|saved! * By His|blood re- deemed I|am; I am|saved! * I am|
w: |||||
w: |||||
 !fermata![CF]2 |] %26
w: |
w: saved!|
w: |
w: |
V:2
 x2 | x C x2 | x4 | x7/2 F/ | E2 x2 | x C x2 | x4 | F2 x2 | x7/2 F/ | x F x2 | x4 | x4 | F2 F>F | %13
 x4 | x4 | x4 | x2 || x2 | x C x2 | x4 | x7/2 F/ | E2 x2 | x C x2 | x4 | F2 x2 | x2 |] %26
V:3
 [F,C]>[F,B,] | [F,A,][F,A,][F,A,][C,C] | [F,C]2 [F,A,]>[F,B,] | [F,A,]2 [F,C]>[F,A,] | %4
 !fermata![C,C]2 [F,C]>[F,B,] | [F,A,][F,A,][F,A,][C,C] | [F,C]2 [F,A,]>[F,B,] | %7
 (A,<C)[C,B,]>[F,A,] | !fermata![F,A,]2 [B,,B,]>[B,D] | [B,D][B,D][D,B,][B,,B,] | %10
 [F,A,]2 [F,B,]>[F,A,] | [F,C][F,A,][C,C][C,C] | (C<A,)F,>F, | [B,,F,][B,,B,][D,B,][B,,B,] | %14
 [F,A,]2 [F,C]>[F,C] | [G,C]2 [G,=B,]>[G,B,] | !fermata![C,C]2 || [F,C]>[F,B,] | %18
 [F,A,][F,A,][F,A,][C,C] | [F,C]2 [F,A,]>[F,B,] | [F,A,]2 [F,C]>[F,A,] | %21
 !fermata![C,C]2 [F,C]>[F,B,] | [F,A,][F,A,][F,A,][C,C] | [F,C]2 [F,A,]>[F,B,] | %24
 (A,<C)[C,B,]>[F,A,] | !fermata![F,A,]2 |] %26
V:4
 x2 | x4 | x4 | x4 | x4 | x4 | x4 | F,2 x2 | x4 | x4 | x4 | x4 | F,2 F,>F, | x4 | x4 | x4 | x2 || %17
 x2 | x4 | x4 | x4 | x4 | x4 | x4 | F,2 x2 | x2 |] %26

